src/assets/images/icons/social/youtube.svg

<svg fill="none" viewBox="0 0 20 14" xmlns="http://www.w3.org/2000/svg"><path d="m19.15 1.28629c-.5425-.936809-1.1312-1.109122-2.33-1.17465-1.1975-.0788761-4.2088-.11164-6.8175-.11164-2.61375 0-5.62625.032764-6.8225.110427-1.19625.066741-1.78625.237841-2.33375 1.175863-.55875.93559-.84625 2.54708-.84625 5.38419v.00364.00365.00242c0 2.82498.2875 4.44861.84625 5.37451.5475.9368 1.13625 1.1067 2.3325 1.1856 1.1975.0679 4.21.1079 6.82375.1079 2.6087 0 5.62-.04 6.8187-.1067 1.1988-.0789 1.7876-.2488 2.3301-1.1856.5637-.9259.8487-2.54952.8487-5.37449 0 0 0-.00364 0-.00607 0 0 0-.00243 0-.00364 0-2.83833-.285-4.44982-.85-5.38541zm-11.65 9.02831v-7.28091l6.25 3.64043z" fill="#f9f9fb"/></svg>

<svg viewBox="0 0 20 14" fill="none" xmlns="http://www.w3.org/2000/svg">
<path id="Vector" d="M19.15 1.28629C18.6075 0.349481 18.0188 0.177168 16.82 0.11164C15.6225 0.0327639 12.6112 0 10.0025 0C7.38875 0 4.37625 0.032764 3.18 0.110427C1.98375 0.177168 1.39375 0.348268 0.84625 1.28629C0.2875 2.22188 0 3.83337 0 6.67048C0 6.67291 0 6.67412 0 6.67412C0 6.67655 0 6.67777 0 6.67777V6.68019C0 9.50517 0.2875 11.1288 0.84625 12.0547C1.39375 12.9915 1.9825 13.1614 3.17875 13.2403C4.37625 13.3082 7.38875 13.3482 10.0025 13.3482C12.6112 13.3482 15.6225 13.3082 16.8212 13.2415C18.02 13.1626 18.6088 12.9927 19.1513 12.0559C19.715 11.13 20 9.50638 20 6.68141C20 6.68141 20 6.67777 20 6.67534C20 6.67534 20 6.67291 20 6.6717C20 3.83337 19.715 2.22188 19.15 1.28629ZM7.5 10.3146V3.03369L13.75 6.67412L7.5 10.3146Z" fill="#F9F9FB"/>
</svg>
